assets/img/buy-btn.svg

<svg width="330" height="164" viewBox="0 0 330 164" fill="none" xmlns="http://www.w3.org/2000/svg">
<g clip-path="url(#clip0_870_2)">
<path d="M328.77 86.19L293.19 24.25C291.68 21.63 288.87 20 285.84 20H18.47C13.8 20 10 23.8 10 28.47V154.61C10 159.29 13.8 163.09 18.47 163.09H290.46C293.69 163.09 296.69 161.2 298.09 158.29L329.05 94.09C330.27 91.57 330.16 88.62 328.77 86.19Z" fill="#0B5600"/>
<path d="M318.77 66.19L283.19 4.25C281.68 1.63 278.87 0 275.84 0H8.47C3.8 0 0 3.8 0 8.47V134.61C0 139.29 3.8 143.09 8.47 143.09H280.46C283.69 143.09 286.69 141.2 288.09 138.29L319.05 74.09C320.27 71.57 320.16 68.62 318.77 66.19Z" fill="#0B5600"/>
<path d="M313.12 71.4598L282.16 135.66C281.85 136.31 281.18 136.73 280.46 136.73H8.46984C7.42984 136.73 6.58984 135.88 6.58984 134.84V8.69982C6.58984 7.66982 7.42984 6.81982 8.46984 6.81982H275.84C276.52 6.81982 277.14 7.17982 277.48 7.76982L313.06 69.6998C313.37 70.2398 313.39 70.8998 313.12 71.4598Z" fill="#9AC923"/>
<g opacity="0.9">
<path d="M67.45 96.1302H57.5V47.4102H70.52C79.99 47.4102 83.54 49.5702 83.54 58.3402C83.54 67.1102 80.34 69.1302 73.1 69.1302V69.8302C79.99 69.8302 84.24 71.7802 84.24 80.8302V82.6402C84.24 92.6602 81.53 96.8402 75.54 96.8402C71.36 96.8402 68.3 94.8202 66.91 87.6502H66.21L67.46 96.1402L67.45 96.1302ZM68.63 64.5302H70.51C72.39 64.5302 73.09 63.2802 73.09 60.9102C73.09 58.5402 72.39 57.3602 70.51 57.3602H68.63V64.5302ZM68.63 74.4802V79.4902C68.63 85.5502 69.53 86.8702 70.79 86.8702C72.46 86.8702 73.09 85.9002 73.09 80.5402C73.09 75.1802 72.05 74.4802 70.03 74.4802H68.64H68.63Z" fill="#0B5600"/>
<path d="M85.7695 83.5302V47.4102H96.2095V80.7502C96.2095 85.6902 96.9095 86.8702 98.7895 86.8702C100.67 86.8702 101.37 85.6902 101.37 80.7502V47.4102H111.81V83.5302C111.81 92.2302 108.19 96.8202 98.7895 96.8202C89.3895 96.8202 85.7695 92.2302 85.7695 83.5302Z" fill="#0B5600"/>
<path d="M120.79 96.1302V72.8102L112.99 47.4102H124.13L126.01 60.9802H126.64L128.59 47.4102H139.73L131.93 72.8102V96.1302H120.79Z" fill="#0B5600"/>
<path d="M167.56 47.4102L171.32 74.8302H172.02L171.32 47.4102H180.99V96.1302H168.53L164.77 68.3602H164.07L164.77 96.1302H155.03V47.4102H167.56Z" fill="#0B5600"/>
<path d="M196.52 46.7202C205.92 46.7202 209.54 51.3102 209.53 60.0102V83.5402C209.53 92.2402 205.91 96.8302 196.52 96.8302C187.13 96.8302 183.5 92.2402 183.5 83.5402V60.0102C183.5 51.3102 187.05 46.7202 196.52 46.7202ZM198.75 80.7602V62.8002C198.75 57.8602 197.99 56.6802 196.52 56.6802C195.05 56.6802 194.29 57.8602 194.29 62.8002V80.7602C194.29 85.7002 194.99 86.8802 196.52 86.8802C198.05 86.8802 198.75 85.7002 198.75 80.7602Z" fill="#0B5600"/>
<path d="M232.95 96.1302L230.44 69.0502H229.67L227.09 96.1302H214.07L210.59 47.4102H222.42L223.12 75.3902H223.82L225.91 47.4102H234.19L236.28 75.3902H236.98L237.68 47.4102H249.44L245.96 96.1302H232.94H232.95Z" fill="#0B5600"/>
</g>
</g>
<defs>
<clipPath id="clip0_870_2">
<rect width="329.89" height="163.09" fill="white"/>
</clipPath>
</defs>
</svg>

<?xml version="1.0" encoding="UTF-8"?>
<svg id="b" data-name="Слой 2" xmlns="http://www.w3.org/2000/svg" width="329.89" height="163.09" viewBox="0 0 329.89 163.09">
  <g id="c" data-name="Слой 1">
    <g>
      <path d="m328.77,86.19l-35.58-61.94c-1.51-2.62-4.32-4.25-7.35-4.25H18.47c-4.67,0-8.47,3.8-8.47,8.47v126.14c0,4.68,3.8,8.48,8.47,8.48h271.99c3.23,0,6.23-1.89,7.63-4.8l30.96-64.2c1.22-2.52,1.11-5.47-.28-7.9Z" fill="#3b0f46" stroke-width="0"/>
      <path d="m318.77,66.19l-35.58-61.94c-1.51-2.62-4.32-4.25-7.35-4.25H8.47C3.8,0,0,3.8,0,8.47v126.14c0,4.68,3.8,8.48,8.47,8.48h271.99c3.23,0,6.23-1.89,7.63-4.8l30.96-64.2c1.22-2.52,1.11-5.47-.28-7.9Z" fill="#3b0f46" stroke-width="0"/>
      <path d="m313.12,71.46l-30.96,64.2c-.31.65-.98,1.07-1.7,1.07H8.47c-1.04,0-1.88-.85-1.88-1.89V8.7c0-1.03.84-1.88,1.88-1.88h267.37c.68,0,1.3.36,1.64.95l35.58,61.93c.31.54.33,1.2.06,1.76Z" fill="#fffa81" stroke-width="0"/>
    </g>
    <g opacity=".9">
      <path d="m67.45,96.13h-9.95v-48.72h13.02c9.47,0,13.02,2.16,13.02,10.93s-3.2,10.79-10.44,10.79v.7c6.89,0,11.14,1.95,11.14,11v1.81c0,10.02-2.71,14.2-8.7,14.2-4.18,0-7.24-2.02-8.63-9.19h-.7l1.25,8.49Zm1.18-31.6h1.88c1.88,0,2.58-1.25,2.58-3.62s-.7-3.55-2.58-3.55h-1.88v7.17Zm0,9.95v5.01c0,6.06.9,7.38,2.16,7.38,1.67,0,2.3-.97,2.3-6.33,0-5.36-1.04-6.06-3.06-6.06h-1.39Z" fill="#3b0f46" stroke-width="0"/>
      <path d="m85.77,83.53v-36.12s10.44,0,10.44,0v33.34c0,4.94.7,6.12,2.58,6.12s2.58-1.18,2.58-6.12v-33.34h10.44v36.12c0,8.7-3.62,13.29-13.02,13.29s-13.02-4.59-13.02-13.29Z" fill="#3b0f46" stroke-width="0"/>
      <path d="m120.79,96.13v-23.32l-7.8-25.4h11.14l1.88,13.57h.63l1.95-13.57h11.14l-7.8,25.4v23.32h-11.14Z" fill="#3b0f46" stroke-width="0"/>
      <path d="m167.56,47.41l3.76,27.42h.7l-.7-27.42h9.67v48.72h-12.46l-3.76-27.77h-.7l.7,27.77h-9.74v-48.72h12.53Z" fill="#3b0f46" stroke-width="0"/>
      <path d="m196.52,46.72c9.4,0,13.02,4.59,13.01,13.29v23.53c0,8.7-3.62,13.29-13.01,13.29s-13.02-4.59-13.02-13.29v-23.53c0-8.7,3.55-13.29,13.02-13.29Zm2.23,34.04v-17.96c0-4.94-.76-6.12-2.23-6.12s-2.23,1.18-2.23,6.12v17.96c0,4.94.7,6.12,2.23,6.12s2.23-1.18,2.23-6.12Z" fill="#3b0f46" stroke-width="0"/>
      <path d="m232.95,96.13l-2.51-27.08h-.77l-2.58,27.08h-13.02l-3.48-48.72h11.83l.7,27.98h.7l2.09-27.98h8.28l2.09,27.98h.7l.7-27.98h11.76l-3.48,48.72h-13.02Z" fill="#3b0f46" stroke-width="0"/>
    </g>
  </g>
</svg>
